images/insta.svg

<svg width="38" height="38" viewBox="0 0 38 38" fill="none" xmlns="http://www.w3.org/2000/svg">
<path d="M18.9999 13.951C16.2145 13.951 13.9523 16.2095 13.9523 19C13.9523 21.7892 16.2158 24.0502 18.9999 24.0502C21.7853 24.0502 24.0501 21.7892 24.0501 19C24.0501 16.2095 21.7853 13.951 18.9999 13.951ZM18.9999 22.3009C17.1709 22.3009 15.6977 20.8227 15.6977 19C15.6977 17.1772 17.1709 15.699 18.9999 15.699C20.81 15.699 22.3021 17.1772 22.3021 19C22.3021 20.8227 20.829 22.3009 18.9999 22.3009Z" fill="white"/>
<path d="M24.5544 12.1042C23.9046 12.1042 23.389 12.621 23.389 13.2708C23.389 13.9194 23.9046 14.4349 24.5544 14.4349C25.2042 14.4349 25.721 13.9194 25.721 13.2708C25.721 12.621 25.2029 12.1042 24.5544 12.1042Z" fill="white"/>
<path d="M19.0025 0.190002C8.61079 0.190002 0.188721 8.60954 0.188721 19C0.188721 29.3879 8.61079 37.81 19.0025 37.81C29.3879 37.81 37.8125 29.3892 37.8125 19C37.8125 8.60954 29.3879 0.190002 19.0025 0.190002ZM28.7103 23.1357C28.7103 26.2048 26.2035 28.7103 23.1167 28.7103H14.8833C11.7952 28.7103 9.28845 26.2035 9.28845 23.1547V14.8631C9.28845 11.7952 11.7939 9.28974 14.8833 9.28974H23.1167C26.2048 9.28974 28.7103 11.7952 28.7103 14.8631V23.1357Z" fill="white"/>
</svg>

<svg width="38" height="38" fill="none" xmlns="http://www.w3.org/2000/svg"><path d="M19 13.951A5.048 5.048 0 0013.952 19 5.05 5.05 0 0019 24.05a5.05 5.05 0 000-10.1zm0 8.35A3.298 3.298 0 0115.698 19 3.298 3.298 0 0119 15.699 3.31 3.31 0 0122.302 19c0 1.823-1.473 3.3-3.302 3.3zm5.554-10.197c-.65 0-1.165.517-1.165 1.167 0 .648.516 1.164 1.165 1.164.65 0 1.167-.516 1.167-1.164a1.16 1.16 0 00-1.167-1.167z" fill="#fff"/><path d="M19.003.19C8.61.19.189 8.61.189 19c0 10.388 8.422 18.81 18.814 18.81 10.385 0 18.81-8.42 18.81-18.81 0-10.39-8.425-18.81-18.81-18.81zm9.707 22.946c0 3.069-2.507 5.574-5.593 5.574h-8.234c-3.088 0-5.595-2.507-5.595-5.555v-8.292c0-3.068 2.506-5.573 5.595-5.573h8.234c3.088 0 5.593 2.505 5.593 5.573v8.273z" fill="#fff"/></svg>
